X:246
T:Morning Star
Z: id:dc-reel-226
M:C
L:1/8
K:G Major
B3A BGEF|GABd efgd|B3A BGEF|GBAF G3A:|!
Bdef g2eg|f2df edBA|Bdef g2eg|afdf e3d|!
Bdef g2eg|f2df edBA|Bdef g2bg|f2af gfed|]!

